science/organic/InDraw250714-2012.svg

<svg xmlns="http://www.w3.org/2000/svg" xmlns:xlink="http://www.w3.org/1999/xlink" width="1851" height="175" x="0" y="0" version="1.1" viewBox="248 572 1851 175"><g><g><rect width="1851" height="175" x="248" y="572" fill="none" stroke="none"/><rect width="1851" height="175" x="248" y="572" fill="none" fill-opacity="1" stroke="none"/><g><g><text x="343.284" y="669.29" fill="#000" stroke="none" dominant-baseline="alphabetic" font-family="Arial" font-size="29pt" font-style="normal" font-weight="normal" text-anchor="middle" text-decoration="normal" transform="scale(1,1)">O</text><text x="299.408" y="668.29" fill="#000" stroke="none" dominant-baseline="alphabetic" font-family="Arial" font-size="29pt" font-style="normal" font-weight="normal" text-anchor="start" text-decoration="normal" transform="scale(1,1)">H</text></g><g><text x="412.404" y="669.29" fill="#000" stroke="none" dominant-baseline="alphabetic" font-family="Arial" font-size="29pt" font-style="normal" font-weight="normal" text-anchor="middle" text-decoration="normal" transform="scale(1,1)">C</text><text x="412.404" y="626.818" fill="#000" stroke="none" dominant-baseline="alphabetic" font-family="Arial" font-size="29pt" font-style="normal" font-weight="normal" text-anchor="middle" text-decoration="normal" transform="scale(1,1)">H</text><text x="426.364" y="612.818" fill="#000" stroke="none" dominant-baseline="hanging" font-family="Arial" font-size="23pt" font-style="normal" font-weight="normal" text-anchor="start" text-decoration="normal" transform="scale(1,1)">2</text></g><g><path fill="none" stroke="#111" stroke-linecap="round" stroke-linejoin="round" stroke-miterlimit="10" stroke-width="2.52" d="M 361.78448000000003 654.2899199999999 L 395.90448000000004 654.2899199999999" paint-order="fill stroke markers" transform="scale(1,1)"/></g><g><text x="481.524" y="669.29" fill="#000" stroke="none" dominant-baseline="alphabetic" font-family="Arial" font-size="29pt" font-style="normal" font-weight="normal" text-anchor="middle" text-decoration="normal" transform="scale(1,1)">C</text><text x="481.524" y="626.818" fill="#000" stroke="none" dominant-baseline="alphabetic" font-family="Arial" font-size="29pt" font-style="normal" font-weight="normal" text-anchor="middle" text-decoration="normal" transform="scale(1,1)">H</text><text x="495.484" y="612.818" fill="#000" stroke="none" dominant-baseline="hanging" font-family="Arial" font-size="23pt" font-style="normal" font-weight="normal" text-anchor="start" text-decoration="normal" transform="scale(1,1)">2</text></g><g><path fill="none" stroke="#111" stroke-linecap="round" stroke-linejoin="round" stroke-miterlimit="10" stroke-width="2.52" d="M 447.36398317382816 654.2899199999999 L 465.02448000000004 654.2899199999999" paint-order="fill stroke markers" transform="scale(1,1)"/></g><g><text x="550.644" y="669.29" fill="#000" stroke="none" dominant-baseline="alphabetic" font-family="Arial" font-size="29pt" font-style="normal" font-weight="normal" text-anchor="middle" text-decoration="normal" transform="scale(1,1)">O</text><text x="566.326" y="668.29" fill="#000" stroke="none" dominant-baseline="alphabetic" font-family="Arial" font-size="29pt" font-style="normal" font-weight="normal" text-anchor="start" text-decoration="normal" transform="scale(1,1)">H</text></g><g><path fill="none" stroke="#111" stroke-linecap="round" stroke-linejoin="round" stroke-miterlimit="10" stroke-width="2.52" d="M 516.4839831738282 654.2899199999999 L 533.14448 654.2899199999999" paint-order="fill stroke markers" transform="scale(1,1)"/></g><g><text x="749.763" y="671.115" fill="#000" stroke="none" dominant-baseline="alphabetic" font-family="Arial" font-size="29pt" font-style="normal" font-weight="normal" text-anchor="middle" text-decoration="normal" transform="scale(1,1)">H</text><text x="763.723" y="671.115" fill="#000" stroke="none" dominant-baseline="alphabetic" font-family="Arial" font-size="29pt" font-style="normal" font-weight="normal" text-anchor="start" text-decoration="normal" transform="scale(1,1)">OOC</text></g><g><text x="906.944" y="671.115" fill="#000" stroke="none" dominant-baseline="alphabetic" font-family="Arial" font-size="29pt" font-style="normal" font-weight="normal" text-anchor="middle" text-decoration="normal" transform="scale(1,1)">C</text><text x="920.904" y="671.115" fill="#000" stroke="none" dominant-baseline="alphabetic" font-family="Arial" font-size="29pt" font-style="normal" font-weight="normal" text-anchor="start" text-decoration="normal" transform="scale(1,1)">OOH</text></g><g><path fill="none" stroke="#111" stroke-linecap="round" stroke-linejoin="round" stroke-miterlimit="10" stroke-width="2.52" d="M 857.1787850527344 656.114688 L 888.988256 656.114688" paint-order="fill stroke markers" transform="scale(1,1)"/></g><g><text x="1317.123" y="680.715" fill="#000" stroke="none" dominant-baseline="alphabetic" font-family="Arial" font-size="29pt" font-style="normal" font-weight="normal" text-anchor="middle" text-decoration="normal" transform="scale(1,1)">O</text></g><g><text x="1386.243" y="680.715" fill="#000" stroke="none" dominant-baseline="alphabetic" font-family="Arial" font-size="29pt" font-style="normal" font-weight="normal" text-anchor="middle" text-decoration="normal" transform="scale(1,1)">C</text><text x="1386.243" y="638.243" fill="#000" stroke="none" dominant-baseline="alphabetic" font-family="Arial" font-size="29pt" font-style="normal" font-weight="normal" text-anchor="middle" text-decoration="normal" transform="scale(1,1)">H</text><text x="1400.203" y="624.243" fill="#000" stroke="none" dominant-baseline="hanging" font-family="Arial" font-size="23pt" font-style="normal" font-weight="normal" text-anchor="start" text-decoration="normal" transform="scale(1,1)">2</text></g><g><path fill="none" stroke="#111" stroke-linecap="round" stroke-linejoin="round" stroke-miterlimit="10" stroke-width="2.52" d="M 1335.6230719999999 665.715456 L 1369.743072 665.715456" paint-order="fill stroke markers" transform="scale(1,1)"/></g><g><text x="1455.363" y="680.715" fill="#000" stroke="none" dominant-baseline="alphabetic" font-family="Arial" font-size="29pt" font-style="normal" font-weight="normal" text-anchor="middle" text-decoration="normal" transform="scale(1,1)">C</text><text x="1455.363" y="638.243" fill="#000" stroke="none" dominant-baseline="alphabetic" font-family="Arial" font-size="29pt" font-style="normal" font-weight="normal" text-anchor="middle" text-decoration="normal" transform="scale(1,1)">H</text><text x="1469.323" y="624.243" fill="#000" stroke="none" dominant-baseline="hanging" font-family="Arial" font-size="23pt" font-style="normal" font-weight="normal" text-anchor="start" text-decoration="normal" transform="scale(1,1)">2</text></g><g><path fill="none" stroke="#111" stroke-linecap="round" stroke-linejoin="round" stroke-miterlimit="10" stroke-width="2.52" d="M 1421.202575173828 665.715456 L 1438.8630719999999 665.715456" paint-order="fill stroke markers" transform="scale(1,1)"/></g><g><text x="1524.483" y="680.715" fill="#000" stroke="none" dominant-baseline="alphabetic" font-family="Arial" font-size="29pt" font-style="normal" font-weight="normal" text-anchor="middle" text-decoration="normal" transform="scale(1,1)">O</text></g><g><path fill="none" stroke="#111" stroke-linecap="round" stroke-linejoin="round" stroke-miterlimit="10" stroke-width="2.52" d="M 1490.322575173828 665.715456 L 1506.983072 665.715456" paint-order="fill stroke markers" transform="scale(1,1)"/></g><g><text x="1593.603" y="680.715" fill="#000" stroke="none" dominant-baseline="alphabetic" font-family="Arial" font-size="29pt" font-style="normal" font-weight="normal" text-anchor="middle" text-decoration="normal" transform="scale(1,1)">C</text></g><g><path fill="none" stroke="#111" stroke-linecap="round" stroke-linejoin="round" stroke-miterlimit="10" stroke-width="2.52" d="M 1542.983072 665.715456 L 1577.1030719999999 665.715456" paint-order="fill stroke markers" transform="scale(1,1)"/></g><g><text x="1593.603" y="611.595" fill="#000" stroke="none" dominant-baseline="alphabetic" font-family="Arial" font-size="29pt" font-style="normal" font-weight="normal" text-anchor="middle" text-decoration="normal" transform="scale(1,1)">O</text></g><g><path fill="none" stroke="#111" stroke-linecap="round" stroke-linejoin="round" stroke-miterlimit="10" stroke-width="2.52" d="M 1597.7504485432098 647.215456 L 1597.7504485432098 615.095456 M 1589.45569545679 647.215456 L 1589.45569545679 615.095456" paint-order="fill stroke markers" transform="scale(1,1)"/></g><g><text x="1662.723" y="680.715" fill="#000" stroke="none" dominant-baseline="alphabetic" font-family="Arial" font-size="29pt" font-style="normal" font-weight="normal" text-anchor="middle" text-decoration="normal" transform="scale(1,1)">C</text></g><g><path fill="none" stroke="#111" stroke-linecap="round" stroke-linejoin="round" stroke-miterlimit="10" stroke-width="2.52" d="M 1611.1030719999999 665.715456 L 1646.223072 665.715456" paint-order="fill stroke markers" transform="scale(1,1)"/></g><g><text x="1662.723" y="611.595" fill="#000" stroke="none" dominant-baseline="alphabetic" font-family="Arial" font-size="29pt" font-style="normal" font-weight="normal" text-anchor="middle" text-decoration="normal" transform="scale(1,1)">O</text></g><g><path fill="none" stroke="#111" stroke-linecap="round" stroke-linejoin="round" stroke-miterlimit="10" stroke-width="2.52" d="M 1666.87044854321 647.215456 L 1666.87044854321 615.095456 M 1658.57569545679 647.215456 L 1658.57569545679 615.095456" paint-order="fill stroke markers" transform="scale(1,1)"/></g><g><text x="1731.843" y="680.715" fill="#000" stroke="none" dominant-baseline="alphabetic" font-family="Arial" font-size="29pt" font-style="normal" font-weight="normal" text-anchor="middle" text-decoration="normal" transform="scale(1,1)">O</text><text x="1747.524" y="679.715" fill="#000" stroke="none" dominant-baseline="alphabetic" font-family="Arial" font-size="29pt" font-style="normal" font-weight="normal" text-anchor="start" text-decoration="normal" transform="scale(1,1)">H</text></g><g><path fill="none" stroke="#111" stroke-linecap="round" stroke-linejoin="round" stroke-miterlimit="10" stroke-width="2.52" d="M 1680.223072 665.715456 L 1714.343072 665.715456" paint-order="fill stroke markers" transform="scale(1,1)"/></g><g><text x="1248.003" y="679.715" fill="#000" stroke="none" dominant-baseline="alphabetic" font-family="Arial" font-size="29pt" font-style="normal" font-weight="normal" text-anchor="middle" text-decoration="normal" transform="scale(1,1)">H</text></g><g><path fill="none" stroke="#111" stroke-linecap="round" stroke-linejoin="round" stroke-miterlimit="10" stroke-width="2.52" d="M 1299.6230719999999 665.715456 L 1265.503072 665.715456" paint-order="fill stroke markers" transform="scale(1,1)"/></g><g><path fill="none" stroke="none" transform="scale(1,1)"/><path fill="none" stroke="#000" stroke-linejoin="round" stroke-miterlimit="10" stroke-width="2.519" d="M 1293.848544973545 579.7873461904761 L 1283.845238095238 579.7873461904761 M 1283.845238095238 579.7873461904761 L 1283.845238095238 729.8369493650792 M 1283.845238095238 729.8369493650792 L 1293.848544973545 729.8369493650792" paint-order="fill stroke markers" transform="scale(1,1)"/></g><g><path fill="none" stroke="none" transform="scale(1,1)"/><path fill="none" stroke="#000" stroke-linejoin="round" stroke-miterlimit="10" stroke-width="2.519" d="M 1686.9371693121695 729.8369493650792 L 1696.9404761904764 729.8369493650792 M 1696.9404761904764 729.8369493650792 L 1696.9404761904764 579.7873461904761 M 1696.9404761904764 579.7873461904761 L 1686.9371693121695 579.7873461904761" paint-order="fill stroke markers" transform="scale(1,1)"/></g><g><text x="1711.917" y="727.326" fill="#111" stroke="none" dominant-baseline="alphabetic" font-family="Arial" font-size="32.914" font-style="normal" font-weight="400" text-anchor="start" text-decoration="normal" transform="scale(1,1)">n</text></g><g><text x="644.423" y="678.79" fill="#000" stroke="none" dominant-baseline="alphabetic" font-family="Arial" font-size="46.08" font-style="normal" font-weight="400" text-anchor="start" text-decoration="normal" transform="scale(1,1)">+</text></g><g><text x="1825.625" y="675.933" fill="#000" stroke="none" dominant-baseline="alphabetic" font-family="Arial" font-size="46.08" font-style="normal" font-weight="400" text-anchor="start" text-decoration="normal" transform="scale(1,1)">+</text></g><g><text x="263.44" y="663.85" fill="#000" stroke="none" dominant-baseline="alphabetic" font-family="'Times New Roman'" font-size="39.497" font-style="normal" font-weight="400" text-anchor="start" text-decoration="normal" transform="scale(1,1)">n</text></g><g><text x="699.202" y="670.517" fill="#000" stroke="none" dominant-baseline="alphabetic" font-family="'Times New Roman'" font-size="39.497" font-style="normal" font-weight="400" text-anchor="start" text-decoration="normal" transform="scale(1,1)">n</text></g><g><text x="1907.155" y="672.897" fill="#000" stroke="none" dominant-baseline="alphabetic" font-family="'Times New Roman'" font-size="39.497" font-style="normal" font-weight="400" text-anchor="start" text-decoration="normal" transform="scale(1,1)">(</text><text x="1920.302" y="672.897" fill="#000" stroke="none" dominant-baseline="alphabetic" font-family="'Times New Roman'" font-size="39.497" font-style="normal" font-weight="400" text-anchor="start" text-decoration="normal" transform="scale(1,1)">n</text><text x="1940.034" y="672.897" fill="#000" stroke="none" dominant-baseline="alphabetic" font-family="'Times New Roman'" font-size="39.497" font-style="normal" font-weight="400" text-anchor="start" text-decoration="normal" transform="scale(1,1)">-</text><text x="1953.182" y="672.897" fill="#000" stroke="none" dominant-baseline="alphabetic" font-family="'Times New Roman'" font-size="39.497" font-style="normal" font-weight="400" text-anchor="start" text-decoration="normal" transform="scale(1,1)">1</text><text x="1972.936" y="672.897" fill="#000" stroke="none" dominant-baseline="alphabetic" font-family="'Times New Roman'" font-size="39.497" font-style="normal" font-weight="400" text-anchor="start" text-decoration="normal" transform="scale(1,1)">)</text></g><g><text x="2075.618" y="677.142" fill="#000" stroke="none" dominant-baseline="alphabetic" font-family="Arial" font-size="29pt" font-style="normal" font-weight="normal" text-anchor="middle" text-decoration="normal" transform="scale(1,1)">O</text><text x="2010.102" y="676.142" fill="#000" stroke="none" dominant-baseline="alphabetic" font-family="Arial" font-size="29pt" font-style="normal" font-weight="normal" text-anchor="start" text-decoration="normal" transform="scale(1,1)">H</text><text x="2038.021" y="662.142" fill="#000" stroke="none" dominant-baseline="hanging" font-family="Arial" font-size="23pt" font-style="normal" font-weight="normal" text-anchor="start" text-decoration="normal" transform="scale(1,1)">2</text></g><g><path fill="none" stroke="#000" stroke-miterlimit="10" stroke-width=".309" d="M 1058.5714285714287 661.4285714285714 L 1183.8514285714286 661.4285714285714" paint-order="fill stroke markers" transform="scale(1,1)"/></g><g><path fill="#000" stroke="#000" stroke-miterlimit="10" stroke-width=".309" d="M 1183.8514285714286 661.4285714285714 L 1180.8584447759497 656.2445714285715 L 1196.8114285714287 661.4285714285714 L 1180.8584447759497 666.6125714285714 Z" paint-order="stroke fill markers" transform="scale(1,1)"/></g></g></g></g></svg>

<svg xmlns="http://www.w3.org/2000/svg" width="1851" height="175" viewBox="248 572 1851 175" xmlns:xlink="http://www.w3.org/1999/xlink"><defs><path fill="none" d="M248 572h1851v175H248z" id="a"/></defs><use href="#a"/><use href="#a"/><text x="343.28" y="669.29" dominant-baseline="alphabetic" font-family="Arial" font-size="29pt" text-anchor="middle" text-decoration="normal">O</text><text x="299.41" y="668.29" dominant-baseline="alphabetic" font-family="Arial" font-size="29pt" text-decoration="normal">H</text><text x="412.4" y="669.29" dominant-baseline="alphabetic" font-family="Arial" font-size="29pt" text-anchor="middle" text-decoration="normal">C</text><text x="412.4" y="626.82" dominant-baseline="alphabetic" font-family="Arial" font-size="29pt" text-anchor="middle" text-decoration="normal">H</text><text x="426.36" y="612.82" dominant-baseline="hanging" font-family="Arial" font-size="23pt" text-decoration="normal">2</text><path fill="none" stroke="#111" stroke-linecap="round" stroke-linejoin="round" stroke-miterlimit="10" stroke-width="2.52" d="M361.784 654.29h34.12" paint-order="fill stroke markers"/><text x="481.52" y="669.29" dominant-baseline="alphabetic" font-family="Arial" font-size="29pt" text-anchor="middle" text-decoration="normal">C</text><text x="481.52" y="626.82" dominant-baseline="alphabetic" font-family="Arial" font-size="29pt" text-anchor="middle" text-decoration="normal">H</text><text x="495.48" y="612.82" dominant-baseline="hanging" font-family="Arial" font-size="23pt" text-decoration="normal">2</text><path fill="none" stroke="#111" stroke-linecap="round" stroke-linejoin="round" stroke-miterlimit="10" stroke-width="2.52" d="M447.364 654.29h17.66" paint-order="fill stroke markers"/><text x="550.64" y="669.29" dominant-baseline="alphabetic" font-family="Arial" font-size="29pt" text-anchor="middle" text-decoration="normal">O</text><text x="566.33" y="668.29" dominant-baseline="alphabetic" font-family="Arial" font-size="29pt" text-decoration="normal">H</text><path fill="none" stroke="#111" stroke-linecap="round" stroke-linejoin="round" stroke-miterlimit="10" stroke-width="2.52" d="M516.484 654.29h16.66" paint-order="fill stroke markers"/><text x="749.76" y="671.12" dominant-baseline="alphabetic" font-family="Arial" font-size="29pt" text-anchor="middle" text-decoration="normal">H</text><text x="763.72" y="671.12" dominant-baseline="alphabetic" font-family="Arial" font-size="29pt" text-decoration="normal">OOC</text><text x="906.94" y="671.12" dominant-baseline="alphabetic" font-family="Arial" font-size="29pt" text-anchor="middle" text-decoration="normal">C</text><text x="920.9" y="671.12" dominant-baseline="alphabetic" font-family="Arial" font-size="29pt" text-decoration="normal">OOH</text><path fill="none" stroke="#111" stroke-linecap="round" stroke-linejoin="round" stroke-miterlimit="10" stroke-width="2.52" d="M857.179 656.115h31.81" paint-order="fill stroke markers"/><text x="1317.12" y="680.72" dominant-baseline="alphabetic" font-family="Arial" font-size="29pt" text-anchor="middle" text-decoration="normal">O</text><text x="1386.24" y="680.72" dominant-baseline="alphabetic" font-family="Arial" font-size="29pt" text-anchor="middle" text-decoration="normal">C</text><text x="1386.24" y="638.24" dominant-baseline="alphabetic" font-family="Arial" font-size="29pt" text-anchor="middle" text-decoration="normal">H</text><text x="1400.2" y="624.24" dominant-baseline="hanging" font-family="Arial" font-size="23pt" text-decoration="normal">2</text><path fill="none" stroke="#111" stroke-linecap="round" stroke-linejoin="round" stroke-miterlimit="10" stroke-width="2.52" d="M1335.623 665.715h34.12" paint-order="fill stroke markers"/><text x="1455.36" y="680.72" dominant-baseline="alphabetic" font-family="Arial" font-size="29pt" text-anchor="middle" text-decoration="normal">C</text><text x="1455.36" y="638.24" dominant-baseline="alphabetic" font-family="Arial" font-size="29pt" text-anchor="middle" text-decoration="normal">H</text><text x="1469.32" y="624.24" dominant-baseline="hanging" font-family="Arial" font-size="23pt" text-decoration="normal">2</text><path fill="none" stroke="#111" stroke-linecap="round" stroke-linejoin="round" stroke-miterlimit="10" stroke-width="2.52" d="M1421.203 665.715h17.66" paint-order="fill stroke markers"/><text x="1524.48" y="680.72" dominant-baseline="alphabetic" font-family="Arial" font-size="29pt" text-anchor="middle" text-decoration="normal">O</text><path fill="none" stroke="#111" stroke-linecap="round" stroke-linejoin="round" stroke-miterlimit="10" stroke-width="2.52" d="M1490.323 665.715h16.66" paint-order="fill stroke markers"/><text x="1593.6" y="680.72" dominant-baseline="alphabetic" font-family="Arial" font-size="29pt" text-anchor="middle" text-decoration="normal">C</text><path fill="none" stroke="#111" stroke-linecap="round" stroke-linejoin="round" stroke-miterlimit="10" stroke-width="2.52" d="M1542.983 665.715h34.12" paint-order="fill stroke markers"/><text x="1593.6" y="611.6" dominant-baseline="alphabetic" font-family="Arial" font-size="29pt" text-anchor="middle" text-decoration="normal">O</text><path fill="none" stroke="#111" stroke-linecap="round" stroke-linejoin="round" stroke-miterlimit="10" stroke-width="2.52" d="M1597.75 647.215v-32.12m-8.294 32.12v-32.12" paint-order="fill stroke markers"/><text x="1662.72" y="680.72" dominant-baseline="alphabetic" font-family="Arial" font-size="29pt" text-anchor="middle" text-decoration="normal">C</text><path fill="none" stroke="#111" stroke-linecap="round" stroke-linejoin="round" stroke-miterlimit="10" stroke-width="2.52" d="M1611.103 665.715h35.12" paint-order="fill stroke markers"/><text x="1662.72" y="611.6" dominant-baseline="alphabetic" font-family="Arial" font-size="29pt" text-anchor="middle" text-decoration="normal">O</text><path fill="none" stroke="#111" stroke-linecap="round" stroke-linejoin="round" stroke-miterlimit="10" stroke-width="2.52" d="M1666.87 647.215v-32.12m-8.294 32.12v-32.12" paint-order="fill stroke markers"/><text x="1731.84" y="680.72" dominant-baseline="alphabetic" font-family="Arial" font-size="29pt" text-anchor="middle" text-decoration="normal">O</text><text x="1747.52" y="679.72" dominant-baseline="alphabetic" font-family="Arial" font-size="29pt" text-decoration="normal">H</text><path fill="none" stroke="#111" stroke-linecap="round" stroke-linejoin="round" stroke-miterlimit="10" stroke-width="2.52" d="M1680.223 665.715h34.12" paint-order="fill stroke markers"/><text x="1248" y="679.72" dominant-baseline="alphabetic" font-family="Arial" font-size="29pt" text-anchor="middle" text-decoration="normal">H</text><path fill="none" stroke="#111" stroke-linecap="round" stroke-linejoin="round" stroke-miterlimit="10" stroke-width="2.52" d="M1299.623 665.715h-34.12" paint-order="fill stroke markers"/><path fill="none" stroke="#000" stroke-linejoin="round" stroke-miterlimit="10" stroke-width="2.52" d="M1293.849 579.787h-10.004m0 0v150.05m0 0h10.004m393.088 0h10.003m0 0v-150.05m0 0h-10.003" paint-order="fill stroke markers"/><text x="1711.92" y="727.33" fill="#111" dominant-baseline="alphabetic" font-family="Arial" font-size="32.91" font-weight="400" text-decoration="normal">n</text><text x="644.42" y="678.79" dominant-baseline="alphabetic" font-family="Arial" font-size="46.08" font-weight="400" text-decoration="normal">+</text><text x="1825.63" y="675.93" dominant-baseline="alphabetic" font-family="Arial" font-size="46.08" font-weight="400" text-decoration="normal">+</text><text x="263.44" y="663.85" dominant-baseline="alphabetic" font-family="'Times New Roman'" font-size="39.5" font-weight="400" text-decoration="normal">n</text><text x="699.2" y="670.52" dominant-baseline="alphabetic" font-family="'Times New Roman'" font-size="39.5" font-weight="400" text-decoration="normal">n</text><text x="1907.15" y="672.9" dominant-baseline="alphabetic" font-family="'Times New Roman'" font-size="39.5" font-weight="400" text-decoration="normal">(</text><text x="1920.3" y="672.9" dominant-baseline="alphabetic" font-family="'Times New Roman'" font-size="39.5" font-weight="400" text-decoration="normal">n</text><text x="1940.03" y="672.9" dominant-baseline="alphabetic" font-family="'Times New Roman'" font-size="39.5" font-weight="400" text-decoration="normal">-</text><text x="1953.18" y="672.9" dominant-baseline="alphabetic" font-family="'Times New Roman'" font-size="39.5" font-weight="400" text-decoration="normal">1</text><text x="1972.94" y="672.9" dominant-baseline="alphabetic" font-family="'Times New Roman'" font-size="39.5" font-weight="400" text-decoration="normal">)</text><text x="2075.62" y="677.14" dominant-baseline="alphabetic" font-family="Arial" font-size="29pt" text-anchor="middle" text-decoration="normal">O</text><text x="2010.1" y="676.14" dominant-baseline="alphabetic" font-family="Arial" font-size="29pt" text-decoration="normal">H</text><text x="2038.02" y="662.14" dominant-baseline="hanging" font-family="Arial" font-size="23pt" text-decoration="normal">2</text><path fill="none" stroke="#000" stroke-miterlimit="10" stroke-width="0.31" d="M1058.571 661.429h125.28" paint-order="fill stroke markers"/><path stroke="#000" stroke-miterlimit="10" stroke-width="0.31" d="m1183.851 661.429-2.993-5.184 15.953 5.184-15.953 5.184Z" paint-order="stroke fill markers"/></svg>
